X: 28
T:Gan Ainm
M:4/4
L:1/8
S:Dermy Diamond, Belfast (fiddle)
R:Reel
D:Private tape - Milltown Malbay 1985
N:As played
H: Reel version of jig. First 2 bars of 'A' part 'A' droned.
Z:Bernie Stocks
K:D
DE ||F2FE FEDE | FAdB ABFE | D2Ad {e}dBAF | GE~E2 EA,CE | F2FE FEDE |\
FAdB ABFE | D2Ad {e}dBAF | GECE D3E | F2FE FEDE | FAdB AFGE |\
(3.F.D.D FA dBAF | GE~E2 EA,CE | F2FE FEDE | FAdB AFGE | DFAB dBAF |\
GA,CE D2ge || f2de fddB | AFFA BAAe | fefg eddA | Bdgb (3aga ag | fd~d2 fded |\
ADFA BAAF | DEFA BFAF | EDCE D3e | fd~d2 fded | ADFA BAAd | fefg eddA |\
Bdgb (3aga ag | fd~d2 fded | ADFA BAAF | DEFA BFAF | EDCE D3e ||
<end>
<start>
